X: 41
T: Praeludia organi op. 5 – Andante
C: Franciszek Walczyński
%%abc-version 2.0
%%abcx-abcm2ps-target-version 5.9.1 (29 Sep 2008)
%%abc-creator hum2abc beta
%%abcx-conversion-date 2021/10/04 07:38:41
%%abc-edited-by Andrzej Borzym
%%abc-edited-by Krzysztof Stępień
%%abcx-initial-encoding-date 2021-07-26
%%humdrum-veritas 4034612131
%%humdrum-veritas-data 2640074819
%%linebreak <none>
%%barnumbers 0
L: 1/8
M: 6/8
N: Derived from pl-kozmzk--mzk-m-159--030_walczynski-franciszek--praeludia-organi-op-5-andante.krn
Q: "30. Andante."
%%staves {1 2}
V: 1 clef=treble
V: 2 clef=bass
K: F
[V:1] A^GA cBA & F6 | 
[V:2] C=B,CD2C- & F,6 | 
[V:1] A2GF3 & E3x2x | 
[V:2] CC_B, A,B,C & C,2>F,2G,A, | 
[V:1] c=Bc edc & F6 | 
[V:2] A,^G,A, CB,A, & F,6 | 
[V:1] c2BA3 & GFG- GEF | 
[V:2] C6 & E,D,E,F,3 | 
[V:1] _edef2e & F6- | 
[V:2] C=B,C A,_B,C & A,^G,A, F,=G,A, | 
[V:1] d2c Bc^c & F2AG3- | 
[V:2] D2_E DCB, & B,F,^F, G,_E,2 | 
[V:1] dgG BAG & G6- | 
[V:2] B,3^C3 & D,6- | 
[V:1] !fermata!A6 & G^FE!fermata!F3 | 
[V:2] D6 & !fermata!D,6 | 
[V:1] z6 & z6 | 
[V:2] D,^F,A,D2C & z6 | 
[V:1] z6 & z6 | 
[V:2] _B,CDG,2=F, & z6 | 
[V:1] z6 & CEGc2B | 
[V:2] =E,3C,3 & z6 | 
[V:1] z6 & ABcF2_E | 
[V:2] F,2>-F,2G,A, & z6 | 
[V:1] z2zz2G & D2=EF2F | 
[V:2] B,3A,2D & z2zz2B, | 
[V:1] A3G3 & F3E3 | 
[V:2] CDC B,CB, & C3C,2^C, | 
[V:1] F2^FG2^G & D6- | 
[V:2] A,3G,2D, & D,2=C,B,,3 | 
[V:1] A6 & D^C=B,C3 | 
[V:2] E,3A,3 & A,,6 | 
[V:1] A^cef2e & E3_B3 | 
[V:2] ^C6- & A,3G,3 | 
[V:1] a3d3 & ed^cd2_A | 
[V:2] CDED2=C & F,6 | 
[V:1] G=Bde2d & G3_A3 | 
[V:2] =B,6 & G,3F,3 | 
[V:1] g3c2_B & dc=Bc2G | 
[V:2] C6- & E,2>-E,2D,E, | 
[V:1] ABcB2A & F6- | 
[V:2] C2>D2B,C & F,2_E,D,2C, | 
[V:1] G6 & F3E3 | 
[V:2] D^CD =CG,B, & B,,3C,3 | 
[V:1] F2>c2dc & F3A3 | 
[V:2] A,CD_E3 & F,,3F,3- | 
[V:1] =B2>_B2cB & _A3G3 | 
[V:2] D=EF_D3 & F,6- | 
[V:1] A2>F2GF & F3C3 | 
[V:2] C=B,CA,3 & F,3_E,3 | 
[V:1] f2>-f2FG & F6- | 
[V:2] _B,CB,B,3 & D,3_D,3 | 
[V:1] A3-A2G & F3E3 | 
[V:2] C2>-C2=B,_B, & C,F,A,C,3 | 
[V:1] F6- & C6 | 
[V:2] A,6 & F,,A,,C,F,2_E, | 
[V:1] F6- & _D6- | 
[V:2] B,6- & _D,B,,C,D,2B,, | 
[V:1] !fermata!F6 & DCB,C3 |]  
[V:2] B,A,G,A,3 & !fermata!F,,6 |]  


